2 Export/Icons/Rounded/Add - Circle.svg

<svg xmlns="http://www.w3.org/2000/svg" xmlns:xlink="http://www.w3.org/1999/xlink" width="24" height="24" viewBox="0 0 24 24">
  <defs>
    <path id="add---circle-a" d="M12 4c-4.416 0-8 3.584-8 8s3.584 8 8 8 8-3.584 8-8-3.584-8-8-8zm3.2 8.8h-2.4v2.4c0 .44-.36.8-.8.8-.44 0-.8-.36-.8-.8v-2.4H8.8c-.44 0-.8-.36-.8-.8 0-.44.36-.8.8-.8h2.4V8.8c0-.44.36-.8.8-.8.44 0 .8.36.8.8v2.4h2.4c.44 0 .8.36.8.8 0 .44-.36.8-.8.8z"/>
  </defs>
  <g fill="none" fill-rule="evenodd">
    <polygon points="0 0 24 0 24 24 0 24"/>
    <mask id="add---circle-b" fill="#fff">
      <use xlink:href="#add---circle-a"/>
    </mask>
    <use fill="#000" xlink:href="#add---circle-a"/>
    <g fill="#000" mask="url(#add---circle-b)">
      <rect width="24" height="24"/>
    </g>
  </g>
</svg>

<svg xmlns="http://www.w3.org/2000/svg" xmlns:xlink="http://www.w3.org/1999/xlink" width="24" height="24" viewBox="0 0 24 24">
  <defs>
    <path id="add---circle-a" d="M12,4 C7.584,4 4,7.584 4,12 C4,16.416 7.584,20 12,20 C16.416,20 20,16.416 20,12 C20,7.584 16.416,4 12,4 Z M15.2,12.8 L12.8,12.8 L12.8,15.2 C12.8,15.64 12.44,16 12,16 C11.56,16 11.2,15.64 11.2,15.2 L11.2,12.8 L8.8,12.8 C8.36,12.8 8,12.44 8,12 C8,11.56 8.36,11.2 8.8,11.2 L11.2,11.2 L11.2,8.8 C11.2,8.36 11.56,8 12,8 C12.44,8 12.8,8.36 12.8,8.8 L12.8,11.2 L15.2,11.2 C15.64,11.2 16,11.56 16,12 C16,12.44 15.64,12.8 15.2,12.8 Z"/>
  </defs>
  <g fill="none" fill-rule="evenodd">
    <polygon points="0 0 24 0 24 24 0 24"/>
    <mask id="add---circle-b" fill="#fff">
      <use xlink:href="#add---circle-a"/>
    </mask>
    <use fill="#000" xlink:href="#add---circle-a"/>
    <g fill="#000" mask="url(#add---circle-b)">
      <rect width="24" height="24"/>
    </g>
  </g>
</svg>
